X:1
T:Menuett in D-Moll, BWV Anh 132
T:Menuett in d-Moll
T:Nr. 36 aus dem "Clavierbüchlein von M.A. Bach"
T:J.S. Bach BWV Anh. 132
C:Johann Sebastian Bach
%%score ( 1 2 )
L:1/8
Q:1/4=80
M:3/4
K:F
V:1 treble-8 nm="Klassische Gitarre" snm="Gitarre"
V:2 treble-8 
V:1
|: !3!A2 fed^c | d2 A2 !1!B2 | ^C!1!E!4!G!2!B!1!A!4!G | F2 EF D2 | !1!F2 (!1!B!4!A)(dc) | %5
 !3!f/!1!e/!3!f e!4!d!4!c!2!B | AB/c/ !4!F2 E2 |1 F2 z2 z2 :|2 F6 |:2 !4!a2 !1!Fa!3!gf || %10
 !3!e/f/g !4!c4 | !2!f2 !0!Dfe!4!d | (^c/d/e) A4 | A=B!2!^c!3!d!3!ef | !2!g!4!e!1!^c!4!bag | %15
 (!4!f/e/!1!d) e2 ^c2 |1 d6 :|2 d6 |] %18
V:2
|: !1!D4 E2 | F4 !3!G2 | !3!A,4 A,2 | D2 A,2 D2 | !3!D2 !1!C2 B,2 | A,4 E,2 | F,2 A,2 C2 |1 %7
 F,2 FED!1!^C :|2 F,2 C2 F,2 |:2 !1!F,2 A,2 B,2 || !1!C3 !3!G EC | !1!D2 !3!=B,2 !2!_B,2 | %12
 A,B,^CDEF | G2 !1!E2 !1!^C2 | A,2 A2 !2!^C2 | !2!D2 !1!G,2 A,2 |1 D2 DA,DE :|2 D2 A,2 D2 |] %18

